data/styles/clear/style-night/symbols/partner2-l.svg

<svg height="28" viewBox="0 0 28 28" width="28"><g fill="none" fill-rule="evenodd"><circle cx="14" cy="14" fill="#fff" opacity=".6" r="14"/><circle cx="14" cy="14" fill="#ff4b00" r="13"/><path d="m16.8272243 7.99671813c.4521304-.05688049.8936992-.11475425 1.3358639-.16762861.7104103-.08492344 1.4194631-.21050419 2.1322903-.23897755.994581-.03979648 1.7263131.74894862 1.7041304 1.74458907-.0210901.94829526-.0290693 1.89685536-.0471797 2.84521676-.0357903 1.8744077-.0738321 3.7487492-.1126684 5.6230907-.0099988.4848748.0010926.9723651-.0466168 1.4537635-.0614495.6201232-.546225 1.0525872-1.1612495 1.1235388-1.0612285.1225017-2.120934.2584123-3.1814341.3870721-.9511757.1154165-1.9027818.2270916-2.8538581.3432695-.9510763.1161448-1.9014905.2374546-2.8525999.353467-1.0385823.1267064-2.07756185.2501351-3.11644208.3745239-.45365341.0543643-.90634668.1370032-1.36152309.1545508-.75172973.0289699-1.27944699-.5239429-1.26567383-1.276997.01979892-1.0806632.03780997-2.1613595.05807241-3.2419897.02105704-1.1247307.04386883-2.2494283.06605156-3.3740928.02198409-1.1136062.04112083-2.2272787.06813741-3.3407525.00715145-.2951296-.01172043-.5965168.13720185-.87224482.2410965-.44643575.62409626-.6610454 1.1177117-.71805834.99011132-.11435694 1.97889831-.24020256 2.96917517-.3529703.1366721-.01556102.1568352-.0766463.1586893-.19169853.0048007-.29757969.0173158-.59509316.0310558-.89244109.0341681-.74070458.5144739-1.22945306 1.2519007-1.31159539 1.0780808-.12011783 2.1551351-.25066487 3.2307328-.39117757.4409066-.05760889.8597629-.05350343 1.227003.2349383.3477391.27314558.5177847.6339295.5117258 1.07765035-.0028473.20851767-.0004966.41710157-.0004966.65495342zm-4.8824192.64955674c.0253611 0 .047577.00228449.0692299-.00033109.5841674-.07028946 1.1683678-.14018162 1.7523696-.2120934.5238767-.06449546 1.0477865-.1292558 1.5708023-.20027365.0538676-.0073501.1446513-.05648319.1459094-.0890289.0113893-.29509655.0066879-.59078905.0066879-.89512288-.0272152.00122501-.0589663.00046352-.0901546.00433722-.3928661.04870268-.7856329.0982993-1.178499.14723374-.7202435.08975729-1.4407849.17759429-2.1603332.27281449-.0426107.00562846-.1096224.06846849-.1108805.10651022-.0094028.28460114-.0051318.5696989-.0051318.86595425zm-2.0801112 1.47627733c-.04095528-.0020527-.07889769-.0095021-.1153502-.0049663-.56827524.0707199-1.13727886.1363411-1.7040642.2176226-.29655333.0425444-.4183597.1957708-.42518006.4952377-.02208341.9701469-.04314045 1.94036-.06121772 2.9106393-.01652117.8877396-.02628819 1.7756449-.04317355 2.6633514-.0236064 1.2404451-.05396695 2.4807578-.0750571 3.721236-.0061913.3650218.14504858.5044089.51222245.4659698.53109433-.0556555 1.05973862-.1345862 1.5906674-.1926918.1199854-.0131772.14177083-.0615488.14292963-.1669002.00420479-.3859133.01787862-.7716942.02532804-1.1575744.03383695-1.7477013.06707794-3.4954356.09992162-5.2432031.01824282-.9703455.0363532-1.9407573.05231152-2.9111359.00433722-.2630806.00066217-.5262936.00066217-.7975851zm8.4010971 9.1715994c.0229111.0083102.0336383.0163225.0432398.0151306.6065818-.0737328 1.2141238-.1405789 1.8190171-.2262308.255896-.0362207.3728354-.1963337.3830659-.4630231.0120515-.3139022.021024-.6280031.0274139-.9421039.0230436-1.1299288.0454912-2.2598906.066184-3.3898525.0257916-1.411219.0495635-2.8224381.074428-4.2336571.0046352-.26460356.0151969-.52920713.0142036-.79377759-.0011588-.30291017-.1509419-.44332355-.4533554-.43703292-.0494973.00102636-.0990939.00589332-.148227.01215084-.4859674.06181367-.971107.13213624-1.4582994.18209705-.1548818.01585899-.1899107.0754875-.1903411.21722522-.0011588.41336031-.016786.8266544-.0245997 1.2400147-.0337045 1.7859748-.0665481 3.5719164-.0999216 5.3578581-.0174151.9316085-.0360221 1.8631839-.0522453 2.7948255-.0039068.2236152-.0005628.4473628-.0005628.6663759zm-.2686097-10.1670743c-.0508217 0-.1061129-.005794-.1598812.00086082-.8525122.10591427-1.704594.21566912-2.5572717.3200604-1.5743118.19272489-3.1489877.38256935-4.7234981.57347328-.2357992.0285727-.2348059.0282416-.2378519.2728145-.0013575.1101521-.0094359.220205-.0115549.3303571-.0336383 1.7478669-.0668793 3.4957006-.1000209 5.2435343-.0231098 1.2185934-.0467493 2.4371207-.0681705 3.6557472-.0046352.2630475-.0006622.5262605-.0006622.7956317.0532717 0 .0913134.0040062.1283287-.0005628 1.1202611-.1390891 2.2403235-.2800984 3.3606508-.4185253 1.3555304-.167463 2.711094-.3343964 4.0672866-.4961648.1099535-.0131441.1352484-.0549933.1364734-.1554115.0048339-.4024676.0178787-.8048359.0258909-1.2073366.0226463-1.1357558.0453588-2.2715779.0661178-3.4074.0257254-1.4061534.0511858-2.8123399.0731368-4.2185596.0066217-.42339217.0010264-.84701613.0010264-1.2885187zm-2.1284629 8.4024413c-.4829876-.2344086-.9478317-.427299-1.3780112-.6794207-.3262848-.191235-.5632427-.1739523-.8578426.065555-.4224652.3435012-.8870775.6352538-1.3339437.9486925-.0351944.0246659-.0723091.0466168-.1310436.0842613.0735341-.4515014.1426647-.87837.2127555-1.305073.0491-.298573.093929-.5980067.151869-.8948912.0269834-.138162-.0050987-.2317929-.1080001-.3326747-.413559-.405348-.8163908-.8216219-1.2226658-1.2344194-.0300957-.0305592-.0559535-.06529-.0967764-.1133305.4275308-.1231639.8389708-.2417918 1.2505102-.3601549.2221252-.0639326.4428269-.1338248.6672367-.1882221.108894-.0264207.1659069-.081414.2088487-.1829248.2745362-.649027.5552305-1.2955046.8344349-1.9425782.0188719-.0436371.0422796-.0853208.0775403-.155842.0720773.1585569.1340234.2913884.1930559.425478.2108022.4787497.4249814.9560758.6274071 1.438335.0462527.1101521.1087617.1479952.2197084.1529615.6218118.0279105 1.243458.0600589 1.8948357.0922404-.0463189.0607542-.0794274.1072055-.115582.1511406-.4308416.5240091-.8600609 1.0493756-1.2950742 1.5699414-.0850227.1017757-.1082318.1991811-.0891613.33092.1006831.6962729.1908708 1.3940357.2898985 2.1300058z" fill="#fff"/></g></svg>

<svg width="28" height="28" viewBox="0 0 28 28">
  <g fill="none" fill-rule="evenodd">
    <circle cx="14" cy="14" r="14" fill="#FFF" opacity=".4"/>
    <circle cx="14" cy="14" r="13" fill="#992E00"/>
    <path fill="#FFF" d="M16.8272243,7.99671813 C17.2793547,7.93983764 17.7209235,7.88196388 18.1630882,7.82908952 C18.8734985,7.74416608 19.5825513,7.61858533 20.2953785,7.59011197 C21.2899595,7.55031549 22.0216916,8.33906059 21.9995089,9.33470104 C21.9784188,10.2829963 21.9704396,11.2315564 21.9523292,12.1799178 C21.9165389,14.0543255 21.8784971,15.928667 21.8396608,17.8030085 C21.829662,18.2878833 21.8407534,18.7753736 21.793044,19.256772 C21.7315945,19.8768952 21.246819,20.3093592 20.6317945,20.3803108 C19.570566,20.5028125 18.5108605,20.6387231 17.4503604,20.7673829 C16.4991847,20.8827994 15.5475786,20.9944745 14.5965023,21.1106524 C13.645426,21.2267972 12.6950118,21.348107 11.7439024,21.4641194 C10.7053201,21.5908258 9.66634055,21.7142545 8.62746032,21.8386433 C8.17380691,21.8930076 7.72111364,21.9756465 7.26593723,21.9931941 C6.5142075,22.022164 5.98649024,21.4692512 6.0002634,20.7161971 C6.02006232,19.6355339 6.03807337,18.5548376 6.05833581,17.4742074 C6.07939285,16.3494767 6.10220464,15.2247791 6.12438737,14.1001146 C6.14637146,12.9865084 6.1655082,11.8728359 6.19252478,10.7593621 C6.19967623,10.4642325 6.18080435,10.1628453 6.32972663,9.88711728 C6.57082313,9.44068153 6.95382289,9.22607188 7.44743833,9.16905894 C8.43754965,9.054702 9.42633664,8.92885638 10.4166135,8.81608864 C10.5532856,8.80052762 10.5734487,8.73944234 10.5753028,8.62439011 C10.5801035,8.32681042 10.5926186,8.02929695 10.6063586,7.73194902 C10.6405267,6.99124444 11.1208325,6.50249596 11.8582593,6.42035363 C12.9363401,6.3002358 14.0133944,6.16968876 15.0889921,6.02917606 C15.5298987,5.97156717 15.948755,5.97567263 16.3159951,6.26411436 C16.6637342,6.53725994 16.8337798,6.89804386 16.8277209,7.34176471 C16.8248736,7.55028238 16.8272243,7.75886628 16.8272243,7.99671813 Z M11.9448051,8.64627487 C11.9701662,8.64627487 11.9923821,8.64855936 12.014035,8.64594378 C12.5982024,8.57565432 13.1824028,8.50576216 13.7664046,8.43385038 C14.2902813,8.36935492 14.8141911,8.30459458 15.3372069,8.23357673 C15.3910745,8.22622663 15.4818582,8.17709354 15.4831163,8.14454783 C15.4945056,7.84945128 15.4898042,7.55375878 15.4898042,7.24942495 C15.462589,7.25064996 15.4308379,7.24988847 15.3996496,7.25376217 C15.0067835,7.30246485 14.6140167,7.35206147 14.2211506,7.40099591 C13.5009071,7.4907532 12.7803657,7.5785902 12.0608174,7.6738104 C12.0182067,7.67943886 11.951195,7.74227889 11.9499369,7.78032062 C11.9405341,8.06492176 11.9448051,8.35001952 11.9448051,8.64627487 Z M9.8646939,10.1225522 C9.82373862,10.1204995 9.78579621,10.1130501 9.7493437,10.1175859 C9.18106846,10.1883058 8.61206484,10.253927 8.0452795,10.3352085 C7.74872617,10.3777529 7.6269198,10.5309793 7.62009944,10.8304462 C7.59801603,11.8005931 7.57695899,12.7708062 7.55888172,13.7410855 C7.54236055,14.6288251 7.53259353,15.5167304 7.51570817,16.4044369 C7.49210177,17.644882 7.46174122,18.8851947 7.44065107,20.1256729 C7.43445977,20.4906947 7.58569965,20.6300818 7.95287352,20.5916427 C8.48396785,20.5359872 9.01261214,20.4570565 9.54354092,20.3989509 C9.66352632,20.3857737 9.68531175,20.3374021 9.68647055,20.2320507 C9.69067534,19.8461374 9.70434917,19.4603565 9.71179859,19.0744763 C9.74563554,17.326775 9.77887653,15.5790407 9.81172021,13.8312732 C9.82996303,12.8609277 9.84807341,11.8905159 9.86403173,10.9201373 C9.86836895,10.6570567 9.8646939,10.3938437 9.8646939,10.1225522 Z M18.265791,19.2941516 C18.2887021,19.3024618 18.2994293,19.3104741 18.3090308,19.3092822 C18.9156126,19.2355494 19.5231546,19.1687033 20.1280479,19.0830514 C20.3839439,19.0468307 20.5008833,18.8867177 20.5111138,18.6200283 C20.5231653,18.3061261 20.5321378,17.9920252 20.5385277,17.6779244 C20.5615713,16.5479956 20.5840189,15.4180338 20.6047117,14.2880719 C20.6305033,12.8768529 20.6542752,11.4656338 20.6791397,10.0544148 C20.6837749,9.78981124 20.6943366,9.52520767 20.6933433,9.26063721 C20.6921845,8.95772704 20.5424014,8.81731366 20.2399879,8.82360429 C20.1904906,8.82463065 20.140894,8.82949761 20.0917609,8.83575513 C19.6057935,8.8975688 19.1206539,8.96789137 18.6334615,9.01785218 C18.4785797,9.03371117 18.4435508,9.09333968 18.4431204,9.2350774 C18.4419616,9.64843771 18.4263344,10.0617318 18.4185207,10.4750921 C18.3848162,12.2610669 18.3519726,14.0470085 18.3185991,15.8329502 C18.301184,16.7645587 18.282577,17.6961341 18.2663538,18.6277757 C18.262447,18.8513909 18.265791,19.0751385 18.265791,19.2941516 Z M17.9971813,9.1270773 C17.9463596,9.1270773 17.8910684,9.1212833 17.8373001,9.12793812 C16.9847879,9.23385239 16.1327061,9.34360724 15.2800284,9.44799852 C13.7057166,9.64072341 12.1310407,9.83056787 10.5565303,10.0214718 C10.3207311,10.0500445 10.3217244,10.0497134 10.3186784,10.2942863 C10.3173209,10.4044384 10.3092425,10.5144913 10.3071235,10.6246434 C10.2734852,12.3725103 10.2402442,14.120344 10.2071026,15.8681777 C10.1839928,17.0867711 10.1603533,18.3052984 10.1389321,19.5239249 C10.1342969,19.7869724 10.1382699,20.0501854 10.1382699,20.3195566 C10.1915416,20.3195566 10.2295833,20.3235628 10.2665986,20.3189938 C11.3868597,20.1799047 12.5069221,20.0388954 13.6272494,19.9004685 C14.9827798,19.7330055 16.3383434,19.5660721 17.694536,19.4043037 C17.8044895,19.3911596 17.8297844,19.3493104 17.8310094,19.2488922 C17.8358433,18.8464246 17.8488881,18.4440563 17.8569003,18.0415556 C17.8795466,16.9057998 17.9022591,15.7699777 17.9230181,14.6341556 C17.9487435,13.2280022 17.9742039,11.8218157 17.9961549,10.415596 C18.0027766,9.99220383 17.9971813,9.56857987 17.9971813,9.1270773 Z M15.8687184,17.5295186 C15.3857308,17.29511 14.9208867,17.1022196 14.4907072,16.8500979 C14.1644224,16.6588629 13.9274645,16.6761456 13.6328646,16.9156529 C13.2103994,17.2591541 12.7457871,17.5509067 12.2989209,17.8643454 C12.2637265,17.8890113 12.2266118,17.9109622 12.1678773,17.9486067 C12.2414114,17.4971053 12.310542,17.0702367 12.3806328,16.6435337 C12.4297328,16.3449607 12.4745618,16.045527 12.5325018,15.7486425 C12.5594852,15.6104805 12.5274031,15.5168496 12.4245017,15.4159678 C12.0109427,15.0106198 11.6081109,14.5943459 11.2018359,14.1815484 C11.1717402,14.1509892 11.1458824,14.1162584 11.1050595,14.0682179 C11.5325903,13.945054 11.9440303,13.8264261 12.3555697,13.708063 C12.5776949,13.6441304 12.7983966,13.5742382 13.0228064,13.5198409 C13.1317004,13.4934202 13.1887133,13.4384269 13.2316551,13.3369161 C13.5061913,12.6878891 13.7868856,12.0414115 14.06609,11.3943379 C14.0849619,11.3507008 14.1083696,11.3090171 14.1436303,11.2384959 C14.2157076,11.3970528 14.2776537,11.5298843 14.3366862,11.6639739 C14.5474884,12.1427236 14.7616676,12.6200497 14.9640933,13.1023089 C15.010346,13.212461 15.072855,13.2503041 15.1838017,13.2552704 C15.8056135,13.2831809 16.4272597,13.3153293 17.0786374,13.3475108 C17.0323185,13.408265 16.99921,13.4547163 16.9630554,13.4986514 C16.5322138,14.0226605 16.1029945,14.548027 15.6679812,15.0685928 C15.5829585,15.1703685 15.5597494,15.2677739 15.5788199,15.3995128 C15.679503,16.0957857 15.7696907,16.7935485 15.8687184,17.5295186 Z" opacity=".6"/>
  </g>
</svg>
